svgs/duotone/circle-x.svg

<svg xmlns="http://www.w3.org/2000/svg" viewBox="0 0 512 512"><!--! Font Awesome Pro 6.0.0-alpha3 by @fontawesome - https://fontawesome.com License - https://fontawesome.com/license (Commercial License) --><defs><style>.fa-secondary{opacity:.4}</style></defs><path class="fa-primary" d="M359.5 133.7c-10.11-8.578-25.28-7.297-33.83 2.828L256 218.8L186.3 136.5C177.8 126.4 162.6 125.1 152.5 133.7C142.4 142.2 141.1 157.4 149.7 167.5L224.6 256l-74.88 88.5c-8.562 10.11-7.297 25.27 2.828 33.83C157 382.1 162.5 384 167.1 384c6.812 0 13.59-2.891 18.34-8.5L256 293.2l69.67 82.34C330.4 381.1 337.2 384 344 384c5.469 0 10.98-1.859 15.48-5.672c10.12-8.562 11.39-23.72 2.828-33.83L287.4 256l74.88-88.5C370.9 157.4 369.6 142.2 359.5 133.7z"/><path class="fa-secondary" d="M256 0C114.6 0 0 114.6 0 256s114.6 256 256 256s256-114.6 256-256S397.4 0 256 0zM362.3 344.5c8.562 10.11 7.297 25.27-2.828 33.83C355 382.1 349.5 384 344 384c-6.812 0-13.59-2.891-18.34-8.5L256 293.2L186.3 375.5C181.6 381.1 174.8 384 167.1 384C162.5 384 157 382.1 152.5 378.3c-10.12-8.562-11.39-23.72-2.828-33.83L224.6 256L149.7 167.5C141.1 157.4 142.4 142.2 152.5 133.7C162.6 125.1 177.8 126.4 186.3 136.5L256 218.8l69.67-82.34c8.547-10.12 23.72-11.41 33.83-2.828c10.12 8.562 11.39 23.72 2.828 33.83L287.4 256L362.3 344.5z"/></svg>

<svg xmlns="http://www.w3.org/2000/svg" viewBox="0 0 512 512"><!-- Font Awesome Pro 6.0.0-alpha2 by @fontawesome - https://fontawesome.com License - https://fontawesome.com/license (Commercial License) --><defs><style>.fa-secondary{opacity:.4}</style></defs><path d="M256 16C123.451 16 16 123.451 16 256S123.451 496 256 496S496 388.549 496 256S388.549 16 256 16ZM362.328 344.5C370.891 354.609 369.625 369.766 359.5 378.328C355 382.141 349.484 384 344.016 384C337.203 384 330.422 381.109 325.672 375.5L256 293.16L186.328 375.5C181.578 381.109 174.797 384 167.984 384C162.516 384 157 382.141 152.5 378.328C142.375 369.766 141.109 354.609 149.672 344.5L224.557 256L149.672 167.5C141.109 157.391 142.375 142.234 152.5 133.672C162.609 125.141 177.781 126.406 186.328 136.5L256 218.84L325.672 136.5C334.219 126.375 349.391 125.094 359.5 133.672C369.625 142.234 370.891 157.391 362.328 167.5L287.443 256L362.328 344.5Z" class="fa-secondary"/><path d="M359.506 133.672C349.396 125.094 334.225 126.375 325.678 136.5L256.006 218.84L186.334 136.5C177.787 126.406 162.615 125.141 152.506 133.672C142.381 142.234 141.115 157.391 149.678 167.5L224.562 256L149.678 344.5C141.115 354.609 142.381 369.766 152.506 378.328C157.006 382.141 162.521 384 167.99 384C174.803 384 181.584 381.109 186.334 375.5L256.006 293.16L325.678 375.5C330.428 381.109 337.209 384 344.021 384C349.49 384 355.006 382.141 359.506 378.328C369.631 369.766 370.896 354.609 362.334 344.5L287.449 256L362.334 167.5C370.896 157.391 369.631 142.234 359.506 133.672Z" class="fa-primary"/></svg>
